X: 27
T: Out On The Ocean
Z: xikay01
S: https://thesession.org/tunes/108#setting48701
R: jig
M: 6/8
L: 1/8
K: Gmaj
D2B BAG|BdB ABA|GED G2A|B2B AGE|
D2B BAG|BdB ABA|GED G2A|BGF G2E|
D2B BAG|BdB ABA|GED G2A|B2B AGE|
D2B BAG|BdB ABA|GED G2A|BGF GBd||
e2e edB|e2e edB|d2d dBA|d2d dBA|
G2A B2d|ege dBA|GED G2A|BGF GBd|
e2e edB|e2e edB|d2d def|gfe dBA|
G2A B2d|ege dBA|GED G2A|BGF G3||

